X:1
T:Adagio from Concerto No. 3 in D Minor, BWV 974
T:Concerto No. 3 en Ré mineur
T:Transcription par Jean-Sébastien Bach - BWV 974
T:Alessandro Marcello (1674-1747) 
C:A. Marcello - J.S. Bach
%%score { ( 1 4 5 ) | ( 2 3 ) }
L:1/8
Q:1/4=32
M:3/4
K:F
V:1 treble nm="Piano à queue" snm="Pia."
V:4 treble 
V:5 treble 
V:2 bass 
V:3 bass 
V:1
"^Adagio"!p!"^Con molto espressione.\n" (.D.D.D.D.D.D) | (.E.E.E.E.E.E) | %2
 (.[EG].[EG].[EG].[EG].[EG].[EG]) | (df) (fa) (ac'/b/) | Mb4 z2 | (ce/d/) (eg/f/) (gb/a/) | %6
 Ma4 z2 | (B/c/4A/4B/d/4^c/4)"_cresc." B/(e/4c/4d/f/4e/4 f/g/4e/4f/a/4g/4) | Mg4 z2 | %9
!f! (A/4^G/4A/4=B/4A/4B/4^c/4B/4) (c/4d/4c/4d/4e/4d/4e/4f/4 e/4f/4=g/4f/4g/4f/4g/4e/4) | %10
!>(! Mf2 z/!>)!!p! f/_b/a/ (b/g/)(g/4f/4e/4f/4) | Pe2 z/ e/f/a/4g/4!mp!!>(! (a/4f/g/<Pe/f/4)!>)! | %12
!p!{e} d2 z/4 (d/4e/4f/4g/4f/4"_cresc."e/4f/4) (g/f/4e/4f/g/) | P^c4 x2 | %14
!f! (^fa) (af)"_dolce" (c/a/f/c/) | (c2"_dim." PB2) z2 | (^g/=b/g/a/) (b/g/e/b/) (g/e/d/b/) | %17
!<(! (dc) (=fe) (eMf-)!<)! |!f! f=g/f/ ef/d/ Me2- | e/(g/f/e/) (d/^c/e/d/) Md2 | %20
!<(! (d/=c/=B/c/!<)!!f! d/e/!>(!f/e/) (dc-!>)! |!mf! c/_B/c/"_cresc."A/ B/c/d/e/ f/g/a/b/) | %22
!f! (Pe2- e/4d/4c/4d/4e/4d/4f/4e/4) (Mf2- | f/>g/f/4e/4f/4g/4) Pg2- g/(f/g/4e/4f/4d/8_e/8) | %24
 (M_e2 (e)g) (b/g/f/e/) | M_e2- (e/g/a/b/) (c'/a/f/e/) | %26
 _e2 d3/2=e/4^f/4 (g/4a/4b/4a/4g/4=f/4e/4g/8f/8) |!<(! (f Mg2) a!<)!!ff! (g/!>(!fg/4e/4)!>)! | %28
!f! (Mf/>g/f/4e/4f/4g/4) (d-d/4^c/4=B/4c/4) (Pc/>d/c/d/4_B/4) |{/A} G6- | %30
"_con espressionne"!f! (G/F/E/F/ G/A/B/A/) (g/e/f/^c/) | %31
 (Pd/>e/d/4^c/4d/4e/4) Pe2- e/(d/=B/4d/4f/4a/4) | %32
 P^g-(g/4a/4g/4^f/4) (e/4f/4g/4f/4g/4a/4g/4f/8g/8) (a/4_b/4a/4=g/4=f/g/4e/4) | %33
 (f/4g/4a/4g/4f/4e/4f/4d/4)!ff! (d/>^c/d/4=B/4c/)!>(! Pc>d!>)! |!p! d4 z2 | %35
 (.[A,DE].[A,DE].[A,DE].[A,DE].[A,=CE].[A,CE]) | %36
"_cresc." (.[A,CD^F].[A,CDF].[A,CDF].[A,CDF].[A,CDF].[A,CDF]) | %37
 (.[G,CDG].[G,B,DG].[B,DG].[B,DG].[B,DG].[B,DG]) |!f! !>!G3 (AFE | FG PE4) | %40
!>(! !arpeggio![A,D]6!>)! |] %41
V:2
 z6 |[I:staff -1] DDDDDD | .^C.C.C.C.C.C | %3
!ped! .[DF][I:staff +1] (.[DF].[DF].[DF].[DF].[DF])!ped-up! | %4
!<(!!ped! (.[G,DF].[G,DF].[G,DF]!<)!!>(!.[G,DF].[G,DF].[G,DF])!ped-up!!>)! | %5
!ped! .[CE].[CE].[CE].[CE].[CE].[CE]!ped-up! | %6
!ped! .[F,CE].[F,CE].[F,CE].[F,CE].[F,CE].[F,CE]!ped-up! | [B,D][B,D][B,D][B,D][B,D][B,D] | %8
 [E,B,D][E,B,D][E,B,D][E,B,D][E,B,D][E,B,D] | [A,^C][A,C][A,C][A,C][A,C][A,C] | %10
 [D,D][D,D][K:treble] [DF_B][DFB][DFB][DFB] | [DGB]!<(![DGB] [=CEA][CEA]!<)![CEA][CEA] | %12
 [CFA][CFA] [B,DG][B,DG][B,DG][B,DG] | %13
!ped! [A,EG][A,EG][K:bass] [A,,A,][A,,A,][A,,A,][A,,A,]!ped-up! | %14
 A,D[K:treble] [D^FA][DFA][DFA][DFA] | [G,DG][G,DG][G,DG][G,DG][G,DG][G,DG] | %16
!ped! [E^G=B][EGB][EGB][EGB][EGB][EGB]!ped-up! | [A,EA][A,EA] [Ac][Ac][Ac][Ac] | %18
 [=G_B][GB][GB][GB][GB][GB] | [FA][FA][FA][FA][FA][FA] | [EG][EG][EG][EG][EG][EG] | %21
 [DF][DF][DF][DF][DFB][DFB] | [CGB][CGB][CGB][CGB][DFA][DFA] | GF- F2 E2 | %24
!ped! [G,B,G][G,B,G][G,B,G][G,B,G][G,B,G][G,B,G]!ped-up! | %25
!ped! [A,CF][A,CF][A,CF][A,CF][A,CF][A,CF]!ped-up! | [B,F][B,F][B,F][B,F] [B,D][B,G] | %27
 [A,^C][A,C][A,C][A,C] [B,D][B,D] | [G,B,D][G,B,E] [A,E][A,G][A,F][A,E] | %29
!<(! D/^C/E/D/!<)!!ff! F/E/G/F/!>(! E/D/^C/D/!>)! | %30
 P[A,^C][A,C][A,C][A,C][K:bass] [F,A,^C][F,A,D] | [G,B,D][G,B,D] [A,^C][A,G][A,F][A,E] | %32
!ped! [E,=B,D][E,B,D][E,B,D][E,B,D]!ped-up! [A,^C][A,C] |!<(! [D,D][G,_B,]!<)! A,2 A,2 | %34
!ped! D,D,D,D,D,D,!ped-up! |!ped! (.[A,,E,].[A,,E,].[A,,E,].[A,,E,].[A,,E,].[A,,E,])!ped-up! | %36
!ped! (.[D,,D,].[D,,D,].[D,,D,].[D,,D,].[D,,D,].[D,,D,])!ped-up! | %37
!ped! (.[G,,D,].[G,,D,].[G,,E,].[G,,E,].[G,,E,].[G,,E,])!ped-up! | %38
!ped! (.[A,,E,].[A,,E,].[A,,E,].[A,,E,])!ped-up! D,2- | D,/(^C,/D,/E,/) z/ (D,/E,/F,/ E,^F,/G,/) | %40
 !arpeggio!^F,6 |] %41
V:3
 x6 | x6 | (.A,.A,.A,.A,.A,.A,) | D, z z2 z2 | x6 | x6 | x6 | x6 | x6 | x6 | x2[K:treble] x4 | x6 | %12
 x6 | x2[K:bass] x4 | D,2[K:treble] x4 | x6 | x6 | x6 | x6 | x6 | x6 | x6 | x6 | [B,D]2 C4 | x6 | %25
 x6 | x6 | x6 | x6 | B,B, B,B, B,B, | x4[K:bass] x2 | x6 | x6 | x2 A,G,A,A,, | z D,,D,,D,,D,,D,, | %35
 x6 | x6 | x6 | x4 B,,B,, | G,,G,,A,,A,,A,,A,, | D,,6 |] %41
V:4
 x6 | x6 | x6 | x6 | x6 | x6 | x6 | x6 | x6 | x6 | x6 | x6 | x6 | z2 [EGA][EGA][EGA][EGA] | %14
 A z x4 | x6 | x6 | x6 | x6 | x6 | x6 | x6 | x6 | x6 | x6 | x6 | x6 | x6 | x6 | x6 | x6 | x6 | x6 | %33
 x6 | z .F.F.[DF].[DF].[DF] | x6 | x6 | x6 | ^CCCC x2 | D4 ^C2 | x6 |] %41
V:5
 x6 | x6 | x6 | x6 | x6 | x6 | x6 | x6 | x6 | x6 | x6 | x6 | x6 | x6 | =c z z4 | x6 | x6 | x6 | %18
 x6 | x6 | x6 | x6 | x6 | x6 | x6 | x6 | x6 | x6 | x6 | x6 | x6 | x6 | x6 | x6 | z DDA,A,A, | x6 | %36
 x6 | x6 | A,2 z2 D^C | x6 | x6 |] %41

